src/assets/images/icon-advice.inline.svg

<?xml version="1.0" encoding="UTF-8"?>
<svg width="148px" height="148px" viewBox="0 0 148 148" version="1.1" xmlns="http://www.w3.org/2000/svg" xmlns:xlink="http://www.w3.org/1999/xlink">
    <!-- Generator: Sketch 54.1 (76490) - https://sketchapp.com -->
    <title>Group 11</title>
    <desc>Created with Sketch.</desc>
    <defs>
        <polygon id="path-1" points="0 1.33567455 63.7241379 1.33567455 63.7241379 61.7636364 0 61.7636364"></polygon>
        <polygon id="path-3" points="0.000434482759 1.33581818 63.7241379 1.33581818 63.7241379 61.7636364 0.000434482759 61.7636364"></polygon>
    </defs>
    <g id="Page-1" stroke="none" stroke-width="1" fill="none" fill-rule="evenodd">
        <g id="Desktop-HD-Copy-2" transform="translate(-280.000000, -3249.000000)">
            <g id="Group-11" transform="translate(280.000000, 3249.000000)">
                <circle id="Oval" fill="#F3F2EE" cx="74" cy="74" r="74"></circle>
                <g id="Group-13" transform="translate(34.000000, 37.000000)">
                    <g id="Group-3" transform="translate(0.000000, 15.900545)">
                        <mask id="mask-2" fill="white">
                            <use xlink:href="#path-1"></use>
                        </mask>
                        <g id="Clip-2"></g>
                        <path d="M63.7241379,8.41551091 L63.7241379,38.7831109 C63.7241379,42.6914564 60.5277931,45.8615109 56.5855862,45.8615109 L31.862069,45.9649291 L17.3793103,61.7649291 L17.3793103,45.9649291 L7.13855172,45.9649291 C3.19634483,45.9649291 0,42.7948745 0,38.8836564 L0,8.51749273 C0,4.60771091 3.19634483,1.43765636 7.13855172,1.43765636 L56.5841379,1.33567455 C60.5277931,1.33567455 63.7241379,4.50572909 63.7241379,8.41551091" id="Fill-1" fill="#EBBA16" mask="url(#mask-2)"></path>
                    </g>
                    <path d="M31.862069,33.0365073 L13.0344828,33.0365073 C12.2335862,33.0365073 11.5862069,32.3930164 11.5862069,31.6001436 C11.5862069,30.8072709 12.2335862,30.16378 13.0344828,30.16378 L31.862069,30.16378 C32.6629655,30.16378 33.3103448,30.8072709 33.3103448,31.6001436 C33.3103448,32.3930164 32.6629655,33.0365073 31.862069,33.0365073" id="Fill-4" fill="#FFFFFF"></path>
                    <path d="M50.6896552,41.6546891 L13.0344828,41.6546891 C12.2335862,41.6546891 11.5862069,41.0111982 11.5862069,40.2183255 C11.5862069,39.4254527 12.2335862,38.7819618 13.0344828,38.7819618 L50.6896552,38.7819618 C51.4905517,38.7819618 52.137931,39.4254527 52.137931,40.2183255 C52.137931,41.0111982 51.4905517,41.6546891 50.6896552,41.6546891" id="Fill-6" fill="#FFFFFF"></path>
                    <path d="M50.6896552,50.2728709 L13.0344828,50.2728709 C12.2335862,50.2728709 11.5862069,49.62938 11.5862069,48.8365073 C11.5862069,48.0436345 12.2335862,47.4001436 13.0344828,47.4001436 L50.6896552,47.4001436 C51.4905517,47.4001436 52.137931,48.0436345 52.137931,48.8365073 C52.137931,49.62938 51.4905517,50.2728709 50.6896552,50.2728709" id="Fill-8" fill="#FFFFFF"></path>
                    <g id="Group-12" transform="translate(20.275862, 0.100545)">
                        <mask id="mask-4" fill="white">
                            <use xlink:href="#path-3"></use>
                        </mask>
                        <g id="Clip-11"></g>
                        <path d="M56.5860207,1.43636364 L7.14043448,1.33581818 C3.19677931,1.33581818 0.000434482759,4.50587273 0.000434482759,8.41565455 L0.000434482759,17.2090727 L36.3101586,17.1343818 C40.2523655,17.1343818 43.4487103,20.3044364 43.4487103,24.2156545 L43.4487103,50.7036364 L53.5866414,61.7636364 L53.5866414,45.9636364 L56.5860207,45.9636364 C60.5282276,45.9636364 63.7245724,42.7935818 63.7245724,38.8838 L63.7245724,8.51763636 C63.7245724,4.60641818 60.5282276,1.43636364 56.5860207,1.43636364" id="Fill-10" fill="#FC852E" mask="url(#mask-4)"></path>
                    </g>
                </g>
            </g>
        </g>
    </g>
</svg>

<svg width="148" height="148" xmlns="http://www.w3.org/2000/svg" xmlns:xlink="http://www.w3.org/1999/xlink"><defs><path id="a" d="M0 1.336h63.724v60.428H0z"/><path id="c" d="M0 1.336h63.724v60.428H0z"/></defs><g fill="none" fill-rule="evenodd"><circle fill="#F3F2EE" cx="74" cy="74" r="74"/><g transform="translate(34 52.9)"><mask id="b" fill="#fff"><use xlink:href="#a"/></mask><path d="M63.724 8.416v30.367c0 3.908-3.196 7.079-7.138 7.079l-24.724.103-14.483 15.8v-15.8H7.14C3.196 45.965 0 42.795 0 38.884V8.517c0-3.91 3.196-7.08 7.139-7.08l49.445-.101c3.944 0 7.14 3.17 7.14 7.08" fill="#EBBA16" mask="url(#b)"/></g><path d="M65.862 70.037H47.034c-.8 0-1.448-.644-1.448-1.437s.648-1.436 1.448-1.436h18.828c.801 0 1.448.643 1.448 1.436 0 .793-.647 1.437-1.448 1.437M84.69 78.655H47.034c-.8 0-1.448-.644-1.448-1.437s.648-1.436 1.448-1.436H84.69c.8 0 1.448.643 1.448 1.436 0 .793-.647 1.437-1.448 1.437M84.69 87.273H47.034c-.8 0-1.448-.644-1.448-1.436 0-.793.648-1.437 1.448-1.437H84.69c.8 0 1.448.644 1.448 1.437 0 .792-.647 1.436-1.448 1.436" fill="#FFF"/><g transform="translate(54.276 37.1)"><mask id="d" fill="#fff"><use xlink:href="#c"/></mask><path d="M56.586 1.436l-49.446-.1C3.197 1.336 0 4.506 0 8.416v8.793l36.31-.075c3.942 0 7.139 3.17 7.139 7.082v26.488l10.138 11.06v-15.8h2.999c3.942 0 7.139-3.17 7.139-7.08V8.518c0-3.912-3.197-7.082-7.139-7.082" fill="#FC852E" mask="url(#d)"/></g></g></svg>
